X:265
T:Dumbarton Drums
R:reel
S:Loose sheet in my collection (possibly from RSCDS)
Z:Nigel Gatherer
M:4/4
L:1/8
K:Em
GA|B3 d BcAB|G2 d>e d2 cB|AGAB cBAG|E2 e>f e2 de|
g3 a bage|dBde g3 G|ABge dBAG|E2 e.f e2:|
de|g3 a gaba|g2 b>c' b2 ag|agab c'bag|e2 a>b a2 ge|
dega bage|dBde g2 ga|bage dBAG|E2 e>f e2:|
<end>
<start>
